X: 1
T: Vals efter Timas Anders
O: Ore, Sweden
R: waltz
Z: 2021 John Chambers <jc:trillian.mit.edu>
S: BlueRoseMusic.org tune 2259 
N: [K:Dm changed to K:Ddor, since there are no B flats.
M: 3/4
L: 1/8
K: Ddor
V: 1 staves=2
z(a2- |\
 ag) bg a2 | (ef) ge f2 | ed g2 g2 | (ga) (fe) fg |\
(ag) bg a2 | (ef) ge f2 | ed a2 ^ce | d3 :|
|: (ef)a |\
e3 (d ^cd) | A3 (B A^G) | (AB) (^cd) ef | (d^c) (de) fa |\
e3 (d ^cd) | A3 (B A^G) | (AB) (^cd) ef | d3 :|
V: 2
z(f2- |\
 fe) ge f2 | (^cd) ec d2 | ^cB e2 e2 | (ef) (d^c) de |\
(fe) ge f2 | (^cd) ec d2 | ^cB c2 EG | [A3F3] :|
|: (Ad)e |\
^c3 (B AE) | [E3^C3] (D CB,) | (^CE) (AB) ^cd | (FE) (FA) df |
^c3 (B AE) | [E3^C3] (D CB,) | (^CE) (AB) ^cd | [A3F3] :|
